assets/Downwards button/Flat/downwards_button_flat.svg

<svg width="32" height="32" viewBox="0 0 32 32" fill="none" xmlns="http://www.w3.org/2000/svg">
<path d="M2 6C2 3.79086 3.79086 2 6 2H26C28.2091 2 30 3.79086 30 6V26C30 28.2091 28.2091 30 26 30H6C3.79086 30 2 28.2091 2 26V6Z" fill="#00A6ED"/>
<path d="M15.134 22.5C15.5189 23.1667 16.4811 23.1667 16.866 22.5L23.7942 10.5C24.1791 9.83333 23.698 9 22.9282 9H9.0718C8.302 9 7.82088 9.83333 8.20578 10.5L15.134 22.5Z" fill="white"/>
</svg>

<svg xmlns="http://www.w3.org/2000/svg" width="32" height="32" fill="none"><path fill="#00A6ED" d="M2 6a4 4 0 0 1 4-4h20a4 4 0 0 1 4 4v20a4 4 0 0 1-4 4H6a4 4 0 0 1-4-4V6Z"/><path fill="#fff" d="M15.134 22.5a1 1 0 0 0 1.732 0l6.928-12a1 1 0 0 0-.866-1.5H9.072a1 1 0 0 0-.866 1.5l6.928 12Z"/></svg>
